X: 33563
T: Rakes Of Clonmel, The
R: jig
M: 6/8
K: Adorian
|:cBA GED|EA^G A2 B|cBc edc|BGF GAB|
cBc dcd|edc Bcd|ecA GED|EA^G A3:|
|:a^ga aed|cBc ABc|gfg gdc|BAB GAB|
cBc dcd|edc Bcd|ecA GED|EA^G A3:|

